workspaces/osm/styles/symbols/tower_lattice_lighting.svg

<svg xmlns="http://www.w3.org/2000/svg" width="14" height="14" viewBox="0 0 14 14">
  <path d="M 6.4726562 0 L 5.2011719 10 L 2.5996094 14 L 4 14 L 4.6660156 13 L 9.3339844 13 L 10 14 L 11.400391 14 L 8.8574219 9.9238281 C 9.0000453 9.9992881 7.5585937 0 7.5585938 0 L 6.4726562 0 z M 2.7148438 1.5449219 C 2.5475777 1.6291099 2.4854765 1.9211987 2.7148438 2.0136719 L 4.5898438 2.7636719 C 4.8962727 2.887214 5.0831658 2.4182195 4.7773438 2.2949219 L 2.9023438 1.5449219 C 2.8258838 1.5140979 2.7705987 1.5168599 2.7148438 1.5449219 z M 11 1.5957031 L 9.125 2.3457031 C 8.819178 2.4690007 9.006071 2.9379952 9.3125 2.8144531 L 11.1875 2.0644531 C 11.493323 1.9411555 11.305822 1.4724055 11 1.5957031 z M 2.7460938 3.3261719 C 2.4163518 3.3261719 2.4163518 3.8261719 2.7460938 3.8261719 L 4.7460938 3.8261719 C 5.0764898 3.8261719 5.0758357 3.3261719 4.7460938 3.3261719 L 2.7460938 3.3261719 z M 9.15625 3.3769531 C 8.826508 3.3769531 8.825854 3.8769531 9.15625 3.8769531 L 11.15625 3.8769531 C 11.485991 3.8769531 11.485991 3.3769531 11.15625 3.3769531 L 9.15625 3.3769531 z M 7 4 L 7.75 10 L 6.25 10 L 7 4 z M 4.5898438 4.4511719 L 2.7148438 5.2011719 C 2.4090217 5.3244695 2.5959147 5.793464 2.9023438 5.6699219 L 4.7773438 4.9199219 C 5.0831658 4.7966243 4.8956656 4.3278743 4.5898438 4.4511719 z M 9.125 4.5019531 C 8.957734 4.5861401 8.895633 4.8782299 9.125 4.9707031 L 11 5.7207031 C 11.306429 5.8442452 11.493322 5.3752507 11.1875 5.2519531 L 9.3125 4.5019531 C 9.23605 4.4711291 9.180755 4.4738911 9.125 4.5019531 z M 6 11 L 8 11 L 8.6660156 12 L 5.3339844 12 L 6 11 z"/>
</svg>

<svg width="14" height="14" version="1.1" viewBox="0 0 14 14" xmlns="http://www.w3.org/2000/svg"><path d="m6.4727 0c-0.42383 3.3333-0.84766 6.6667-1.2715 10-0.86719 1.3333-1.7344 2.6667-2.6016 4h1.4004c0.22201-0.33333 0.44401-0.66667 0.66602-1h4.668c0.22201 0.33333 0.44401 0.66667 0.66602 1h1.4004c-0.84766-1.3587-1.6953-2.7174-2.543-4.0762 0.016648-0.3679-0.059154-0.74028-0.092798-1.1087-0.36442-2.9434-0.78849-5.879-1.206-8.8152h-1.0859zm-3.7578 1.5449c-0.20768 0.09612-0.19592 0.44546 0.046216 0.48724 0.62883 0.24765 1.2529 0.50899 1.8847 0.74796 0.32139 0.059278 0.39458-0.47095 0.069915-0.50985-0.62282-0.24616-1.2419-0.50274-1.8671-0.7423-0.044731-0.010728-0.093172-0.0046-0.13379 0.01695zm8.2852 0.050781c-0.64144 0.26069-1.2893 0.50744-1.9267 0.77694-0.2727 0.17948 0.03839 0.61403 0.30078 0.41716 0.62089-0.25247 1.2482-0.49101 1.865-0.75229 0.24085-0.15225 0.025465-0.56748-0.23915-0.44181zm-8.2539 1.7305c-0.3556-0.017353-0.29745 0.57948 0.049776 0.5 0.66934-0.00368 1.3394 0.00741 2.0083-0.00562 0.32062-0.063606 0.19035-0.57989-0.12444-0.49438h-1.9336zm6.4102 0.050781c-0.35582-0.017373-0.2978 0.57966 0.049776 0.5 0.66931-0.00368 1.3393 0.00741 2.0082-0.00562 0.32026-0.063755 0.19044-0.57984-0.12433-0.49438h-1.9336zm-2.1562 0.62305 0.75 6h-1.5l0.75-6zm-2.4102 0.45117c-0.64144 0.26069-1.2893 0.50744-1.9267 0.77694-0.2727 0.17948 0.03839 0.61403 0.30078 0.41716 0.62089-0.25247 1.2482-0.49101 1.865-0.75229 0.24085-0.15225 0.025465-0.56748-0.23915-0.44181zm4.5352 0.050781c-0.20768 0.09612-0.19592 0.44546 0.046216 0.48724 0.62883 0.24765 1.2529 0.50899 1.8847 0.74796 0.32139 0.059278 0.39458-0.47095 0.06991-0.50985-0.62281-0.24616-1.2419-0.50274-1.8671-0.7423-0.044732-0.010727-0.093174-0.0046017-0.13379 0.01695zm-3.125 6.498h2c0.22201 0.33333 0.44401 0.66667 0.66602 1h-3.332c0.22201-0.33333 0.44401-0.66667 0.66602-1z"/></svg>
